X: 18674
T: I'll Tell Me Ma
R: polka
M: 2/4
K: Gmajor
|:DGB2|cBB2|BAA3/2B/|AGG3/2E/|
DGB2|cBB2|BAA3/2B/|AGG2:|
|:d2dB|cccA|B2BG|AFD2|
d2dB|ccc2|BGAF|GGG2:|

